dist/assets/img/first/icon2.svg

<svg width="100" height="54" viewBox="0 0 100 54" fill="none" xmlns="http://www.w3.org/2000/svg">
<path d="M70.7575 49.0716C68.9343 49.0716 67.7421 48.5788 67.0408 47.5227C65.4279 45.0586 67.5317 40.3415 69.6355 35.3428C71.3887 31.2594 73.2119 27.0351 72.5808 24.7118C71.1783 19.7835 65.0773 21.4028 64.7968 21.4732L64.5864 20.7692C64.6566 20.7692 71.6692 18.8682 73.2119 24.5006C73.9132 27.0351 72.1601 31.189 70.1965 35.554C68.3031 40.2711 66.2695 45.0586 67.672 47.1707C68.233 47.9452 69.2148 48.3676 70.7575 48.3676V49.0716Z" fill="#0055A6"/>
<path d="M65.4276 19.854H64.0952V21.2621H65.4276V19.854Z" fill="#0095EB"/>
<path d="M65.4276 21.1917H64.0952V22.5997H65.4276V21.1917Z" fill="#0069CC"/>
<path d="M72.0897 47.3821H70.7573V48.7902H72.0897V47.3821Z" fill="#0095EB"/>
<path d="M72.0897 48.7197H70.7573V50.1278H72.0897V48.7197Z" fill="#0069CC"/>
<path d="M85.8346 43.5803H71.7393V53.9297H85.8346V43.5803Z" fill="#0069CC"/>
<path d="M100 43.5803H85.9048V53.9297H100V43.5803Z" fill="#0055A6"/>
<path d="M99.0882 44.4956H72.7207V53.0145H99.0882V44.4956Z" fill="#0095EB"/>
<path d="M86.3252 48.8605C86.3252 50.1982 87.3771 51.2543 88.7095 51.2543V46.4668C87.3771 46.4668 86.3252 47.5229 86.3252 48.8605Z" fill="#0055A6"/>
<path d="M88.7095 46.4668V51.2543C90.0419 51.2543 91.0938 50.1982 91.0938 48.8605C91.0938 47.5229 89.9717 46.4668 88.7095 46.4668Z" fill="#0069CC"/>
<path d="M86.6758 48.8606C86.6758 49.987 87.5874 50.8319 88.6393 50.8319V46.8188C87.5874 46.8893 86.6758 47.7341 86.6758 48.8606Z" fill="#0069CC"/>
<path d="M88.7095 46.8892V50.9022C89.8315 50.9022 90.673 49.9869 90.673 48.9309C90.673 47.734 89.7614 46.8892 88.7095 46.8892Z" fill="#0055A6"/>
<path d="M79.9438 48.8605C79.9438 50.1982 80.9957 51.2543 82.3281 51.2543V46.4668C81.0659 46.4668 79.9438 47.5229 79.9438 48.8605Z" fill="#0055A6"/>
<path d="M82.3281 46.4668V51.2543C83.6605 51.2543 84.7124 50.1982 84.7124 48.8605C84.7124 47.5229 83.6605 46.4668 82.3281 46.4668Z" fill="#0069CC"/>
<path d="M80.3647 48.8606C80.3647 49.987 81.2764 50.8319 82.3283 50.8319V46.8188C81.2764 46.8893 80.3647 47.7341 80.3647 48.8606Z" fill="#0069CC"/>
<path d="M82.3281 46.8892V50.9022C83.4501 50.9022 84.2917 49.9869 84.2917 48.9309C84.3618 47.734 83.4501 46.8892 82.3281 46.8892Z" fill="#0055A6"/>
<path d="M73.8428 48.8605C73.8428 50.1982 74.8947 51.2543 76.2271 51.2543V46.4668C74.8947 46.4668 73.8428 47.5229 73.8428 48.8605Z" fill="#0055A6"/>
<path d="M76.2271 46.4668V51.2543C77.5594 51.2543 78.6113 50.1982 78.6113 48.8605C78.6113 47.5229 77.4893 46.4668 76.2271 46.4668Z" fill="#0069CC"/>
<path d="M74.1934 48.8606C74.1934 49.987 75.105 50.8319 76.1569 50.8319V46.8188C75.105 46.8893 74.1934 47.7341 74.1934 48.8606Z" fill="#0069CC"/>
<path d="M76.2271 46.8892V50.9022C77.3491 50.9022 78.1906 49.9869 78.1906 48.9309C78.1906 47.734 77.2789 46.8892 76.2271 46.8892Z" fill="#0055A6"/>
<path d="M95.2312 50.7615H93.8286L92.917 51.6768H94.3896H96.2831V50.7615V49.4238L95.2312 50.7615Z" fill="#BF201F"/>
<path d="M94.8805 49.4238H92.917V50.7615V51.6768L93.8286 50.7615H95.2312L96.2831 49.4238H94.8805Z" fill="#FF4B4A"/>
<path d="M96.0727 49.635H93.1274V51.4655H96.0727V49.635Z" fill="#F22F2E"/>
<path d="M95.2312 47.1006H93.8286L92.917 47.9455H94.3896H96.2831V47.1006V45.7629L95.2312 47.1006Z" fill="#BF201F"/>
<path d="M94.8805 45.7629H92.917V47.1006V47.9455L93.8286 47.1006H95.2312L96.2831 45.7629H94.8805Z" fill="#FF4B4A"/>
<path d="M96.0727 45.9741H93.1274V47.8046H96.0727V45.9741Z" fill="#F22F2E"/>
<path d="M73.7027 52.3808C73.7027 52.1696 73.5625 52.0288 73.3521 52.0288C73.1417 52.0288 73.0015 52.1696 73.0015 52.3808C73.0015 52.592 73.1417 52.7329 73.3521 52.7329C73.4923 52.7329 73.7027 52.592 73.7027 52.3808Z" fill="#0055A6"/>
<path d="M73.7027 45.1291C73.7027 44.9179 73.5625 44.7771 73.3521 44.7771C73.1417 44.7771 73.0015 44.9179 73.0015 45.1291C73.0015 45.3403 73.1417 45.4811 73.3521 45.4811C73.4923 45.4811 73.7027 45.3403 73.7027 45.1291Z" fill="#0055A6"/>
<path d="M98.7379 52.3808C98.7379 52.1696 98.5976 52.0288 98.3873 52.0288C98.1769 52.0288 98.0366 52.1696 98.0366 52.3808C98.0366 52.592 98.1769 52.7329 98.3873 52.7329C98.5976 52.7329 98.7379 52.592 98.7379 52.3808Z" fill="#0055A6"/>
<path d="M98.7379 45.1291C98.7379 44.9179 98.5976 44.7771 98.3873 44.7771C98.1769 44.7771 98.0366 44.9179 98.0366 45.1291C98.0366 45.3403 98.1769 45.4811 98.3873 45.4811C98.5976 45.4811 98.7379 45.3403 98.7379 45.1291Z" fill="#0055A6"/>
<path d="M22.3003 32.1748L20.2666 52.24H32.1881V32.1748H22.3003Z" fill="#0055A6"/>
<path d="M42.1459 32.1748H32.188V52.24H44.1094L42.1459 32.1748Z" fill="#00498F"/>
<path d="M32.1882 52.24H17.3916V54.0001H32.1882V52.24Z" fill="#0069CC"/>
<path d="M46.9846 52.24H32.188V54.0001H46.9846V52.24Z" fill="#0055A6"/>
<path d="M61.5007 0H32.1879H2.87517C1.3324 0 0 1.33768 0 2.88657V6.05476V36.8918V40.1304C0 41.7497 1.3324 43.0169 2.87517 43.0169H32.1879V39.8488H61.5007C63.1136 39.8488 64.3759 38.5111 64.3759 36.9622V2.88657C64.3759 1.33768 63.1136 0 61.5007 0Z" fill="#0069CC"/>
<path d="M61.5008 0H32.188V3.16819V39.8488V43.0169H61.5008C63.1137 43.0169 64.3759 41.6793 64.3759 40.1304V36.9622V6.12516V2.88657C64.3759 1.33768 63.1137 0 61.5008 0Z" fill="#0055A6"/>
<path d="M4.06761 2.60498C3.08584 2.60498 2.31445 3.37943 2.31445 4.36508V37.5254C2.31445 38.5111 3.08584 39.2856 4.06761 39.2856H32.1882V2.60498H4.06761Z" fill="white"/>
<path d="M60.3086 2.60498H32.188V39.2856H60.3086C61.2904 39.2856 62.0618 38.5111 62.0618 37.5254V4.36508C62.0618 3.37943 61.2904 2.60498 60.3086 2.60498Z" fill="#E8E8E8"/>
<path d="M61.9916 11.8278H59.1866C59.0463 11.8278 58.9061 11.8982 58.9061 12.039L57.3633 14.644L54.9089 8.23722C54.8387 8.09641 54.6985 8.02601 54.5582 8.02601C54.418 8.02601 54.2777 8.09641 54.2076 8.23722L52.0337 12.8839L51.2623 10.3493C51.1922 10.2085 51.0519 10.0677 50.9117 10.0677C50.7013 10.0677 50.6312 10.1381 50.561 10.2789L48.1066 17.601L44.8107 5.77307C44.7406 5.63226 44.6003 5.49146 44.4601 5.49146C44.3198 5.49146 44.1796 5.56186 44.1094 5.77307L41.4446 14.4328L39.4811 8.16681C39.411 8.02601 39.2707 7.8852 39.1305 7.8852C38.9902 7.8852 38.85 8.02601 38.7798 8.16681L36.4657 16.2633L34.7125 7.74439C34.7125 7.60358 34.5723 7.46277 34.3619 7.46277C34.2216 7.46277 34.0814 7.53318 34.0112 7.67399L32.6087 11.7574H24.6845C24.5442 11.7574 24.404 11.8982 24.3338 12.039L23.2118 16.4041L21.5288 6.89954C21.5288 6.75873 21.3885 6.61792 21.1782 6.61792C21.0379 6.61792 20.8275 6.68833 20.8275 6.89954L18.5835 14.2216L16.9706 10.4902C16.9005 10.3493 16.7602 10.2789 16.6199 10.2789C16.4797 10.2789 16.3394 10.3493 16.2693 10.4902L15.1473 12.8135L13.4643 8.23722C13.3941 8.09641 13.2539 8.02601 13.1136 8.02601C12.9734 8.02601 12.8331 8.09641 12.763 8.30762L11.08 13.3767L9.67745 5.20984C9.67745 4.99863 9.5372 4.92822 9.32682 4.92822C9.11644 4.92822 8.97619 5.06903 8.97619 5.28024L7.64379 16.4041L5.75038 8.37803C5.68025 8.23722 5.54 8.09641 5.39975 8.09641C5.2595 8.09641 5.11925 8.16681 5.04912 8.37803L4.06735 11.8982H2.38432C2.17394 11.8982 2.03369 12.039 2.03369 12.2503C2.03369 12.4615 2.17394 12.6023 2.38432 12.6023H4.34786C4.48811 12.6023 4.62836 12.4615 4.69849 12.3207L5.39975 9.92692L7.43341 18.5162C7.50354 18.657 7.64379 18.7978 7.78404 18.7978C7.92429 18.7978 8.06455 18.657 8.13467 18.4458L9.39694 7.74439L10.7293 14.7848C10.7293 14.9256 10.8696 15.0664 11.08 15.0664C11.2202 15.0664 11.3605 14.996 11.4306 14.7848L13.2539 9.36369L14.8668 13.7287C14.9369 13.8696 15.007 13.94 15.2174 13.94C15.3577 13.94 15.4979 13.8696 15.5681 13.7287L16.7602 11.335L18.4432 15.2072C18.5134 15.348 18.6536 15.4184 18.7939 15.4184C18.9341 15.4184 19.0744 15.2776 19.1445 15.1368L21.2483 8.30762L22.9313 18.0234C22.9313 18.1642 23.0716 18.305 23.2819 18.305C23.4222 18.305 23.6326 18.1642 23.6326 18.0234L25.1052 12.3207H33.0295C33.1697 12.3207 33.31 12.2503 33.3801 12.1094L34.432 9.01166L36.1852 17.601C36.1852 17.7418 36.3254 17.8826 36.5358 17.8826C36.676 17.8826 36.8163 17.8122 36.8864 17.601L39.3408 9.22288L41.3044 15.4184C41.3745 15.5593 41.4446 15.7001 41.655 15.7001C41.7953 15.7001 41.9355 15.6297 42.0056 15.4184L44.6003 6.89954L47.6859 18.9387C47.756 19.0795 47.8962 19.2203 48.0365 19.2203C48.1767 19.2203 48.317 19.1499 48.3871 19.0091L50.9117 11.6166L51.6129 14.0104C51.6831 14.1512 51.7532 14.2216 51.9636 14.292C52.1038 14.292 52.2441 14.2216 52.3142 14.0808L54.5582 9.36369L57.0127 15.7001C57.0828 15.8409 57.1529 15.9113 57.2932 15.9113C57.4334 15.9113 57.5737 15.8409 57.6438 15.7001L59.4671 12.6023H62.0617H62.1319L61.9916 11.8278C62.0617 11.8278 61.9916 11.8278 61.9916 11.8278Z" fill="#0069CC"/>
<path d="M61.9919 30.9777H60.0283C59.8881 30.9777 59.7478 31.1185 59.6777 31.2593L58.9063 33.9347L57.2233 29.0064C57.1532 28.8656 57.0129 28.7952 56.8727 28.7952C56.7324 28.7952 56.5922 28.8656 56.522 29.0064L55.2598 32.3858L53.6469 28.6544C53.5767 28.5136 53.4365 28.4432 53.2962 28.4432C53.156 28.4432 53.0157 28.5136 52.9456 28.7248L51.1924 34.0755L49.5795 28.6544C49.5094 28.5136 49.4393 28.4432 49.2289 28.3727C49.0886 28.3727 48.9484 28.4432 48.8783 28.584L47.3355 32.1042L46.0732 26.683C46.0031 26.5422 45.8628 26.4014 45.7226 26.4014C45.5823 26.4014 45.4421 26.4718 45.372 26.683L43.2682 33.9347L41.5851 25.3454C41.5851 25.2046 41.4449 25.0638 41.2345 25.0638C41.0241 25.0638 40.8839 25.2046 40.8839 25.3454L39.4112 30.9777H31.487C31.3467 30.9777 31.2766 31.0481 31.2065 31.1185L29.9442 32.8786L28.191 28.7248C28.1209 28.584 27.9807 28.5136 27.8404 28.5136C27.63 28.5136 27.5599 28.584 27.4898 28.7248L25.2457 34.1459L23.2121 27.7391C23.1419 27.5983 23.0017 27.4575 22.8614 27.4575C22.7212 27.4575 22.5809 27.5983 22.5108 27.7391L20.1265 35.906L17.6721 24.5709C17.6721 24.4301 17.5318 24.2893 17.3916 24.2893C17.2513 24.2893 17.1111 24.3597 17.041 24.5005L13.6048 32.1042L12.4828 28.5136C12.4126 28.3727 12.2724 28.2319 12.1321 28.2319C11.9919 28.2319 11.8516 28.3023 11.7815 28.4432L9.53746 35.202L7.57392 26.8943C7.50379 26.7535 7.43367 26.6126 7.29342 26.6126C7.15316 26.6126 7.01291 26.683 6.94278 26.8239L4.97925 30.9777H2.38458H2.31445V31.6817H2.38458H5.18963C5.32988 31.6817 5.47013 31.6113 5.54026 31.4705L7.08304 28.0911L9.1167 36.61C9.18682 36.7508 9.25695 36.8917 9.46733 36.8917C9.60758 36.8917 9.74783 36.8212 9.81796 36.6804L12.1321 29.8512L13.184 33.301C13.2541 33.4418 13.3243 33.5123 13.5346 33.5827C13.6749 33.5827 13.8152 33.5123 13.8853 33.3714L17.3215 25.9086L19.846 37.5957C19.846 37.7365 19.9863 37.8773 20.1966 37.8773C20.3369 37.8773 20.4771 37.8069 20.5473 37.5957L23.0017 29.2176L24.9652 35.4132C25.0354 35.554 25.1756 35.6244 25.3159 35.6948C25.4561 35.6948 25.5964 35.6244 25.6665 35.4836L27.9807 29.8512L29.6637 33.7939C29.7338 33.9347 29.8039 34.0051 29.9442 34.0051C30.0844 34.0051 30.2247 33.9347 30.2948 33.8643L31.8376 31.7521H39.9021C40.0424 31.7521 40.1826 31.6113 40.2527 31.4705L41.3748 27.0351L43.0578 35.4836C43.0578 35.6244 43.198 35.7652 43.4084 35.7652C43.5487 35.7652 43.7591 35.6948 43.7591 35.4836L45.8628 28.0911L47.055 33.1602C47.1251 33.301 47.1952 33.4418 47.4056 33.4418C47.5459 33.4418 47.6861 33.3714 47.7562 33.2306L49.3692 29.64L51.0522 35.202C51.1223 35.3428 51.2626 35.4836 51.4028 35.4836C51.6132 35.4836 51.6833 35.4132 51.7534 35.202L53.5767 29.7104L55.1896 33.4418C55.2598 33.5827 55.4 33.6531 55.5403 33.6531C55.6805 33.6531 55.8208 33.5827 55.8909 33.4418L57.1532 30.0624L58.9063 35.202C58.9764 35.3428 59.1167 35.4132 59.257 35.4132C59.3972 35.4132 59.5375 35.2724 59.6076 35.1315L60.5893 31.6113H62.2724H62.3425L61.9919 30.9777C62.062 30.9777 61.9919 30.9777 61.9919 30.9777Z" fill="#FF4140"/>
<path d="M61.2203 20.6987L59.8178 22.8108L58.836 20.6987L57.3634 22.318L55.9608 20.5579L54.8388 22.5292L53.2259 20.6987L51.6831 23.3037L49.8598 20.4875L47.5457 23.4445L45.3016 21.1211L43.7589 22.3884L42.0057 20.9803L40.0422 22.8108L38.4293 20.6987L35.7645 23.4445L33.8009 20.7691L32.1179 23.4445L30.1544 19.9947L28.1908 23.6557L27.3493 19.2202L26.0871 23.5149L24.7547 20.9099L23.4223 24.1485L22.0899 19.2202L20.0562 23.6557L17.9524 20.2763L16.2694 22.2476L14.2357 20.7691L14.0253 21.1915C13.3942 22.1068 12.6929 23.0924 12.3423 23.5149L10.3788 20.4171L8.62563 22.8812L6.59197 20.4171L5.11932 23.4445L3.78692 20.1355L2.45452 22.8108L2.24414 22.5996V23.7261L2.59477 24.1485L3.71679 21.8956L5.04919 25.2046L6.73222 21.6844L8.62563 24.0077L10.3087 21.6844L12.1319 24.5709L12.4124 24.3597C12.4826 24.2893 12.6228 24.2189 14.376 21.8252L16.3395 23.3037L17.8122 21.614L20.1263 25.275L21.8795 21.4027L23.282 26.4718L24.8949 22.67L26.3676 25.4862L27.2792 22.318L27.9805 25.8382L30.2946 21.5436L32.188 24.8525L33.9412 22.0364L35.7645 24.5005L38.4293 21.7548L39.972 23.8669L42.0758 21.8956L43.7589 23.2333L45.2315 22.0364L47.6158 24.5005L49.8598 21.6844L51.7533 24.5709L53.3662 21.8252L54.9791 23.6557L56.1011 21.8252L57.4335 23.3741L58.7659 21.966L59.8178 24.2893L61.4307 21.8252L62.1319 22.5292V21.4731L61.2203 20.6987Z" fill="#3A9E32"/>
</svg>

<svg width="100" height="54" fill="none" xmlns="http://www.w3.org/2000/svg"><path d="M70.757 49.072c-1.823 0-3.015-.493-3.716-1.55-1.613-2.463.49-7.18 2.594-12.18 1.754-4.083 3.577-8.307 2.946-10.63-1.403-4.928-7.504-3.31-7.784-3.239l-.21-.704c.07 0 7.082-1.9 8.625 3.732.701 2.534-1.052 6.688-3.016 11.053-1.893 4.717-3.927 9.505-2.524 11.617.561.774 1.543 1.197 3.085 1.197v.704z" fill="#0055A6"/><path d="M65.428 19.854h-1.333v1.408h1.333v-1.408z" fill="#0095EB"/><path d="M65.428 21.192h-1.333V22.6h1.333v-1.408z" fill="#0069CC"/><path d="M72.09 47.382h-1.333v1.408h1.333v-1.408z" fill="#0095EB"/><path d="M72.09 48.72h-1.333v1.408h1.333V48.72z" fill="#0069CC"/><path d="M85.835 43.58H71.739v10.35h14.096V43.58z" fill="#0069CC"/><path d="M100 43.58H85.905v10.35H100V43.58z" fill="#0055A6"/><path d="M99.088 44.496H72.721v8.518h26.367v-8.518z" fill="#0095EB"/><path d="M86.325 48.86a2.37 2.37 0 002.385 2.394v-4.787a2.37 2.37 0 00-2.385 2.394z" fill="#0055A6"/><path d="M88.71 46.467v4.787a2.37 2.37 0 002.384-2.393c0-1.338-1.122-2.394-2.384-2.394zm-2.034 2.393c0 1.127.911 1.972 1.963 1.972v-4.013c-1.052.07-1.963.915-1.963 2.042z" fill="#0069CC"/><path d="M88.71 46.89v4.012a1.964 1.964 0 001.963-1.971c0-1.197-.912-2.042-1.963-2.042zm-8.766 1.97a2.37 2.37 0 002.384 2.394v-4.787c-1.262 0-2.384 1.056-2.384 2.394z" fill="#0055A6"/><path d="M82.328 46.467v4.787a2.37 2.37 0 002.384-2.393 2.37 2.37 0 00-2.384-2.394zm-1.963 2.393c0 1.127.911 1.972 1.963 1.972v-4.013c-1.052.07-1.963.915-1.963 2.042z" fill="#0069CC"/><path d="M82.328 46.89v4.012a1.964 1.964 0 001.964-1.971c.07-1.197-.842-2.042-1.964-2.042zm-8.485 1.97a2.37 2.37 0 002.384 2.394v-4.787a2.37 2.37 0 00-2.384 2.394z" fill="#0055A6"/><path d="M76.227 46.467v4.787a2.37 2.37 0 002.384-2.393c0-1.338-1.122-2.394-2.384-2.394zm-2.034 2.393c0 1.127.912 1.972 1.964 1.972v-4.013c-1.052.07-1.964.915-1.964 2.042z" fill="#0069CC"/><path d="M76.227 46.89v4.012a1.964 1.964 0 001.964-1.971c0-1.197-.912-2.042-1.964-2.042z" fill="#0055A6"/><path d="M95.231 50.761H93.83l-.912.916h3.366v-2.253l-1.052 1.337z" fill="#BF201F"/><path d="M94.88 49.424h-1.963v2.253l.912-.916h1.402l1.052-1.337H94.88z" fill="#FF4B4A"/><path d="M96.073 49.635h-2.946v1.83h2.946v-1.83z" fill="#F22F2E"/><path d="M95.231 47.1H93.83l-.912.846h3.366v-2.183L95.231 47.1z" fill="#BF201F"/><path d="M94.88 45.763h-1.963v2.183l.912-.845h1.402l1.052-1.338H94.88z" fill="#FF4B4A"/><path d="M96.073 45.974h-2.946v1.83h2.946v-1.83z" fill="#F22F2E"/><path d="M73.703 52.38c0-.21-.14-.351-.35-.351-.211 0-.352.14-.352.352 0 .211.14.352.351.352.14 0 .35-.141.35-.352zm0-7.25c0-.212-.14-.353-.35-.353-.211 0-.352.14-.352.352 0 .211.14.352.351.352.14 0 .35-.14.35-.352zm25.035 7.25c0-.21-.14-.351-.35-.351-.211 0-.351.14-.351.352 0 .211.14.352.35.352.21 0 .35-.141.35-.352zm0-7.25c0-.212-.14-.353-.35-.353-.211 0-.351.14-.351.352 0 .211.14.352.35.352.21 0 .35-.14.35-.352zM22.3 32.175L20.267 52.24h11.921V32.175H22.3z" fill="#0055A6"/><path d="M42.146 32.175h-9.958V52.24h11.921l-1.963-20.065z" fill="#00498F"/><path d="M32.188 52.24H17.392V54h14.796v-1.76z" fill="#0069CC"/><path d="M46.985 52.24H32.188V54h14.797v-1.76z" fill="#0055A6"/><path d="M61.5 0H2.876C1.332 0 0 1.338 0 2.887V40.13a2.894 2.894 0 002.875 2.887h29.313v-3.168H61.5c1.613 0 2.875-1.338 2.875-2.887V2.887C64.376 1.337 63.114 0 61.5 0z" fill="#0069CC"/><path d="M61.5 0H32.189v43.017h29.313c1.613 0 2.875-1.338 2.875-2.887V2.887C64.376 1.337 63.114 0 61.5 0z" fill="#0055A6"/><path d="M4.068 2.605a1.74 1.74 0 00-1.754 1.76v33.16c0 .986.772 1.76 1.754 1.76h28.12V2.606H4.068z" fill="#fff"/><path d="M60.309 2.605H32.188v36.68h28.12a1.74 1.74 0 001.754-1.76V4.365a1.74 1.74 0 00-1.753-1.76z" fill="#E8E8E8"/><path d="M61.992 11.828h-2.805c-.14 0-.28.07-.28.211l-1.544 2.605-2.454-6.407a.386.386 0 00-.35-.211.385.385 0 00-.351.211l-2.174 4.647-.772-2.535c-.07-.14-.21-.281-.35-.281-.21 0-.28.07-.351.21l-2.454 7.323L44.81 5.773c-.07-.14-.21-.282-.35-.282-.141 0-.281.07-.352.282l-2.664 8.66-1.964-6.266c-.07-.141-.21-.282-.35-.282-.14 0-.281.141-.351.282l-2.314 8.096-1.754-8.519c0-.14-.14-.281-.35-.281-.14 0-.28.07-.35.211l-1.403 4.083h-7.925c-.14 0-.28.141-.35.282l-1.122 4.365L21.529 6.9c0-.141-.14-.282-.35-.282-.141 0-.351.07-.351.282l-2.244 7.322-1.613-3.732a.385.385 0 00-.351-.211c-.14 0-.28.07-.35.211l-1.123 2.323-1.683-4.576a.386.386 0 00-.35-.211c-.14 0-.28.07-.351.282l-1.683 5.069L9.677 5.21c0-.211-.14-.282-.35-.282-.21 0-.35.141-.35.352L7.643 16.404 5.75 8.378c-.07-.14-.21-.282-.35-.282-.14 0-.28.07-.35.282l-.983 3.52H2.384c-.21 0-.35.141-.35.352s.14.352.35.352h1.964c.14 0 .28-.14.35-.281L5.4 9.927l2.033 8.59c.07.14.21.28.351.28.14 0 .28-.14.35-.351L9.398 7.744l1.332 7.04c0 .142.14.282.351.282.14 0 .28-.07.35-.281l1.824-5.421 1.613 4.365c.07.14.14.211.35.211.14 0 .28-.07.351-.211l1.192-2.394 1.683 3.872c.07.141.21.211.35.211.141 0 .281-.14.352-.281l2.103-6.83 1.683 9.716c0 .141.14.282.35.282.141 0 .352-.14.352-.282l1.472-5.702h7.924c.14 0 .281-.07.351-.212l1.052-3.097 1.753 8.589c0 .14.14.282.35.282.141 0 .281-.07.351-.282l2.455-8.378 1.963 6.195c.07.141.14.282.351.282.14 0 .28-.07.35-.282L44.6 6.9l3.086 12.039c.07.14.21.281.35.281.14 0 .281-.07.351-.21l2.525-7.393.7 2.393c.071.141.141.212.352.282.14 0 .28-.07.35-.211l2.244-4.717 2.455 6.336c.07.14.14.211.28.211s.28-.07.35-.21l1.824-3.099h2.665l-.14-.774c.07 0 0 0 0 0z" fill="#0069CC"/><path d="M61.992 30.978h-1.964c-.14 0-.28.14-.35.281l-.772 2.676-1.683-4.929a.385.385 0 00-.35-.21c-.14 0-.28.07-.351.21l-1.262 3.38-1.613-3.732a.386.386 0 00-.35-.21c-.141 0-.281.07-.351.28l-1.754 5.351-1.612-5.42c-.07-.141-.14-.212-.351-.282-.14 0-.28.07-.35.211l-1.543 3.52-1.263-5.421c-.07-.14-.21-.282-.35-.282-.14 0-.28.07-.351.282l-2.104 7.252-1.683-8.59c0-.14-.14-.281-.35-.281-.21 0-.351.14-.351.281l-1.473 5.633h-7.924c-.14 0-.21.07-.28.14l-1.263 1.76-1.753-4.153a.385.385 0 00-.35-.211c-.211 0-.281.07-.351.21l-2.244 5.422-2.034-6.407c-.07-.14-.21-.282-.35-.282-.14 0-.281.141-.351.282l-2.384 8.167-2.455-11.335c0-.14-.14-.282-.28-.282s-.28.07-.351.211l-3.436 7.604-1.122-3.59c-.07-.141-.21-.282-.35-.282a.385.385 0 00-.351.211l-2.245 6.759-1.963-8.308c-.07-.14-.14-.281-.28-.281s-.281.07-.351.21l-1.964 4.155H2.315v.704H5.19c.14 0 .28-.07.35-.211l1.543-3.38 2.034 8.519c.07.14.14.282.35.282.14 0 .28-.07.351-.212l2.314-6.829 1.052 3.45c.07.14.14.211.35.282.14 0 .281-.07.351-.212l3.437-7.462 2.524 11.687c0 .14.14.281.35.281.14 0 .281-.07.351-.281l2.455-8.378 1.963 6.195c.07.141.21.211.35.282.141 0 .281-.07.351-.211l2.315-5.633 1.683 3.943c.07.14.14.211.28.211s.28-.07.35-.14l1.544-2.113h8.064c.14 0 .28-.14.35-.281l1.123-4.436 1.683 8.449c0 .14.14.281.35.281.14 0 .351-.07.351-.281l2.104-7.393 1.192 5.07c.07.14.14.28.35.28.14 0 .281-.07.351-.21l1.613-3.591 1.683 5.562c.07.14.21.282.35.282.211 0 .281-.07.351-.282l1.824-5.492 1.613 3.732c.07.14.21.211.35.211.14 0 .28-.07.35-.211l1.263-3.38 1.753 5.14c.07.14.21.211.351.211.14 0 .28-.14.35-.281l.982-3.52h1.753l-.35-.634c.07 0 0 0 0 0z" fill="#FF4140"/><path d="M61.22 20.699l-1.402 2.112-.982-2.112-1.473 1.619-1.402-1.76-1.122 1.971-1.613-1.83-1.543 2.605-1.823-2.816-2.314 2.957-2.244-2.324-1.543 1.267-1.753-1.408-1.964 1.83-1.612-2.11-2.665 2.745-1.963-2.675-1.683 2.676-1.964-3.45-1.963 3.66-.842-4.435-1.262 4.295-1.332-2.605-1.333 3.238-1.332-4.928-2.034 4.436-2.104-3.38-1.683 1.972-2.033-1.479-.21.423c-.632.915-1.333 1.9-1.684 2.323l-1.963-3.098-1.753 2.464-2.034-2.464-1.473 3.027-1.332-3.308-1.332 2.675-.21-.211v1.126l.35.422 1.122-2.252 1.332 3.309 1.683-3.52 1.894 2.323 1.683-2.324 1.823 2.887.28-.211c.07-.07.21-.141 1.964-2.535l1.964 1.479 1.472-1.69 2.314 3.661 1.753-3.872 1.403 5.069 1.613-3.802 1.473 2.816.911-3.168.701 3.52 2.315-4.294 1.893 3.308 1.753-2.816 1.823 2.464 2.665-2.745 1.543 2.112 2.104-1.971 1.683 1.337 1.472-1.197 2.385 2.464 2.244-2.816 1.893 2.887 1.613-2.746 1.613 1.83 1.122-1.83 1.333 1.55 1.332-1.409 1.052 2.323 1.613-2.464.7.704v-1.056l-.91-.774z" fill="#3A9E32"/></svg>
